htdocs/bitrix/js/ui/icons/service/images/ui-service-1c.svg

<svg xmlns="http://www.w3.org/2000/svg" width="42" height="42" viewBox="0 0 42 42"><path fill="#D61921" d="M7,14 L7,15.994396 L9.919525,15.994396 L9.939201,29 L12,29 L12,14 L7,14 Z M20.704422,14.010504 L20.331124,14.040732 L19.964159,14.094322 L19.607015,14.165041 L19.256031,14.254882 L18.913224,14.364024 L18.578652,14.492695 L18.251827,14.636321 L17.937495,14.79688 L17.629097,14.97481 L17.333077,15.167575 L17.047079,15.375386 L16.771086,15.598394 L16.505487,15.833898 L16.251609,16.084509 L16.010553,16.345985 L15.778904,16.620275 L15.56215,16.907377 L15.357189,17.203111 L15.164279,17.509606 L14.986021,17.826665 L14.819757,18.152356 L14.669574,18.486454 L14.533658,18.827176 L14.411794,19.178765 L14.304339,19.534277 L14.213023,19.896399 L14.13806,20.265087 L14.079065,20.637728 L14.034622,21.014972 L14.010164,21.394178 L14,21.779511 L14.010164,22.161524 L14.038653,22.537908 L14.083282,22.906293 L14.146123,23.271178 L14.227089,23.624728 L14.324624,23.973736 L14.43611,24.312557 L14.564006,24.642142 L14.708128,24.963683 L14.866044,25.27629 L15.038684,25.578513 L15.22539,25.872678 L15.424061,26.153291 L15.635054,26.424804 L15.860342,26.684786 L16.095522,26.932258 L16.342968,27.168305 L16.600576,27.391932 L16.868463,27.602822 L17.146343,27.800265 L17.434657,27.984956 L17.730676,28.15377 L18.036931,28.310058 L18.349375,28.450214 L18.669968,28.575912 L18.998422,28.687665 L19.331137,28.782168 L19.671899,28.858637 L20.016822,28.921373 L20.369835,28.963539 L20.724706,28.992077 L21.083895,29 L38,29 L38,26.971073 L21.083895,26.971073 L20.807889,26.965369 L20.536099,26.941358 L20.268298,26.904987 L20.006758,26.855895 L19.751007,26.790759 L19.499574,26.714381 L19.256031,26.626669 L19.018821,26.524031 L18.787358,26.412263 L18.562398,26.287938 L18.34533,26.1556 L18.136309,26.011883 L17.935508,25.856802 L17.740854,25.695941 L17.55402,25.524893 L17.377663,25.344639 L17.209397,25.158771 L17.048951,24.966052 L16.898826,24.764187 L16.756963,24.558896 L16.627065,24.346754 L16.505487,24.130024 L16.393729,23.90765 L16.294336,23.682951 L16.205136,23.45374 L16.126013,23.219866 L16.059156,22.983774 L16.004192,22.744346 L15.961593,22.505944 L15.929129,22.264117 L15.911146,22.022319 L15.902927,21.779511 L15.909002,21.50996 L15.925084,21.242025 L15.953474,20.974285 L15.992098,20.708492 L16.041001,20.445023 L16.101741,20.183501 L16.170642,19.926371 L16.251609,19.671384 L16.342968,19.420864 L16.444533,19.174192 L16.556033,18.934402 L16.679727,18.700845 L16.809625,18.471619 L16.951746,18.248701 L17.103801,18.034552 L17.263904,17.828914 L17.43653,17.631667 L17.617189,17.44094 L17.805596,17.260942 L18.00441,17.091645 L18.213402,16.933078 L18.430613,16.785362 L18.65776,16.648255 L18.892969,16.523855 L19.136383,16.412388 L19.38996,16.31378 L19.651629,16.228211 L19.921474,16.157507 L20.199396,16.101924 L20.485381,16.061132 L20.781657,16.035461 L21.083895,16.028957 L21.386147,16.035461 L21.680137,16.056891 L21.964391,16.095329 L22.242042,16.14892 L22.51203,16.215458 L22.77134,16.298975 L23.023102,16.393252 L23.266688,16.50253 L23.501511,16.624546 L23.726785,16.757412 L23.944096,16.903151 L24.153045,17.059636 L24.35183,17.22679 L24.540423,17.40472 L24.721411,17.590859 L24.893565,17.785873 L25.054112,17.99148 L25.205867,18.205917 L25.347844,18.426586 L25.481945,18.653548 L25.605481,18.889323 L25.717425,19.1294 L25.820506,19.377792 L25.914023,19.62866 L25.997134,19.88585 L26.067965,20.14704 L26.131149,20.412848 L26.181953,20.680859 L26.223994,20.952855 L26.254843,21.227099 L26.27264,21.501404 L26.282875,21.779511 L28.185859,21.779511 L28.175653,21.377094 L28.151323,20.980789 L28.107023,20.588454 L28.048156,20.204932 L27.973122,19.827657 L27.879619,19.457084 L27.774294,19.094931 L27.649956,18.741652 L27.514498,18.396659 L27.362171,18.062199 L27.195692,17.734561 L27.017492,17.419525 L26.822566,17.115233 L26.617863,16.821853 L26.398493,16.539052 L26.167329,16.269064 L25.924244,16.011782 L25.670352,15.769714 L25.404709,15.538224 L25.127044,15.321811 L24.840631,15.120489 L24.542496,14.933987 L24.236142,14.762698 L23.917608,14.608387 L23.593441,14.469001 L23.258583,14.34691 L22.913317,14.242039 L22.562806,14.156469 L22.203603,14.087712 L21.838553,14.038468 L21.46527,14.008451 L21.083895,14 L20.704422,14.010504 Z M5,17 L5,19.009406 L7.009623,19.009406 L7.009623,29 L9,29 L8.980814,17 L5,17 Z M20.839648,17.006809 L20.628493,17.024649 L20.42164,17.053691 L20.218875,17.096085 L20.020097,17.146982 L19.825364,17.207231 L19.636805,17.280707 L19.450005,17.363172 L19.26965,17.454754 L19.093054,17.557036 L18.922904,17.666112 L18.758499,17.786484 L18.600312,17.913587 L18.448299,18.049414 L18.300302,18.191941 L18.160351,18.343442 L18.028319,18.501517 L17.900617,18.666229 L17.782991,18.837891 L17.671353,19.016018 L17.566105,19.201016 L17.470718,19.390487 L17.383563,19.584068 L17.304341,19.784694 L17.233451,19.989571 L17.170422,20.199093 L17.117783,20.412852 L17.075092,20.628979 L17.04059,20.849468 L17.018451,21.072123 L17.004188,21.2995 L17,21.528963 L17.006303,21.760373 L17.020267,21.987514 L17.04675,22.212805 L17.083267,22.433262 L17.127731,22.649123 L17.18267,22.861438 L17.245499,23.067712 L17.318419,23.27281 L17.399713,23.470831 L17.488855,23.662937 L17.588258,23.850274 L17.693835,24.032903 L17.807131,24.206025 L17.927086,24.375585 L18.054788,24.538069 L18.188578,24.692159 L18.330487,24.841526 L18.478755,24.981495 L18.630797,25.113101 L18.790857,25.237521 L18.95539,25.353752 L19.125698,25.460458 L19.302008,25.558896 L19.48252,25.650211 L19.66722,25.727311 L19.857736,25.798448 L20.050611,25.858933 L20.247202,25.908685 L20.448124,25.9478 L20.652804,25.975163 L20.8596,25.992845 L21.07074,26 L38,26 L38,23.909597 L21.086976,23.909597 L20.985458,23.906035 L20.882024,23.898975 L20.780763,23.885874 L20.679231,23.868035 L20.579856,23.845582 L20.48051,23.81585 L20.381093,23.785067 L20.285806,23.747113 L20.190547,23.706806 L20.097076,23.660505 L20.005719,23.611882 L19.916706,23.558568 L19.829409,23.500516 L19.744398,23.437678 L19.663175,23.373695 L19.586196,23.303562 L19.511119,23.232549 L19.437942,23.155497 L19.371154,23.077126 L19.306167,22.994127 L19.245324,22.909951 L19.188698,22.821084 L19.137903,22.729722 L19.091167,22.636116 L19.048462,22.540016 L19.00993,22.439287 L18.979687,22.339688 L18.951374,22.235304 L18.931093,22.129743 L18.914857,22.020761 L18.906811,21.911623 L18.902509,21.800241 L18.904638,21.660193 L18.91267,21.524162 L18.924933,21.388398 L18.941041,21.257059 L18.961307,21.12575 L18.987777,20.998569 L19.017962,20.873819 L19.052607,20.751344 L19.093054,20.631034 L19.135759,20.515134 L19.184382,20.403893 L19.237306,20.294582 L19.291803,20.187875 L19.352745,20.087696 L19.417633,19.989571 L19.486808,19.896154 L19.559713,19.806942 L19.634805,19.72217 L19.715785,19.644176 L19.798895,19.568645 L19.888236,19.499515 L19.979564,19.434889 L20.074922,19.37475 L20.174311,19.321075 L20.275844,19.272138 L20.381093,19.229823 L20.490686,19.194223 L20.604196,19.165118 L20.719806,19.140814 L20.839648,19.123101 L20.961175,19.114173 L21.086976,19.109749 L21.21282,19.114173 L21.336535,19.123101 L21.453875,19.140814 L21.571643,19.165118 L21.683109,19.194223 L21.792846,19.229823 L21.898152,19.272138 L22.001528,19.321075 L22.099059,19.37475 L22.194146,19.434889 L22.28746,19.499515 L22.375086,19.568645 L22.458168,19.644176 L22.539148,19.72217 L22.616412,19.806942 L22.689289,19.896154 L22.756291,19.989571 L22.821036,20.087696 L22.882178,20.187875 L22.938819,20.294582 L22.9912,20.403893 L23.03825,20.515134 L23.082542,20.631034 L23.121346,20.751344 L23.155419,20.873819 L23.186262,20.998569 L23.212688,21.12575 L23.232683,21.257059 L23.250892,21.388398 L23.263383,21.524162 L23.269372,21.660193 L23.271487,21.800241 L23.293683,21.800241 L23.354625,21.800241 L23.44754,21.800241 L23.569639,21.800241 L23.713305,21.800241 L23.873694,21.800241 L24.045959,21.800241 L24.222555,21.800241 L24.400752,21.800241 L24.573703,21.800241 L24.733506,21.800241 L24.877673,21.800241 L24.999057,21.800241 L25.092543,21.800241 L25.1535,21.800241 L25.173495,21.800241 L25.169794,21.548858 L25.1535,21.303579 L25.125073,21.06114 L25.088813,20.820411 L25.04182,20.586491 L24.985094,20.359177 L24.918063,20.134467 L24.843028,19.915986 L24.75776,19.702291 L24.664903,19.495059 L24.565471,19.294355 L24.455892,19.098421 L24.33808,18.911445 L24.214409,18.730871 L24.084792,18.557137 L23.946656,18.392363 L23.800789,18.23435 L23.650634,18.084983 L23.494604,17.942363 L23.332029,17.81107 L23.16408,17.686273 L22.9912,17.572742 L22.815176,17.467824 L22.632606,17.37199 L22.445819,17.287485 L22.257275,17.214009 L22.06257,17.149383 L21.865794,17.096085 L21.667016,17.05573 L21.464222,17.024649 L21.259285,17.006809 L21.05246,17 L20.839648,17.006809 Z"/></svg>

<svg xmlns="http://www.w3.org/2000/svg" width="42" height="42" viewBox="0 0 42 42"><path fill="#D61921" d="M7 14v1.994h2.92L9.94 29H12V14H7zm13.704.01l-.373.03-.367.054-.357.071-.351.09-.343.109-.334.129-.327.143-.315.16-.308.179-.296.193-.286.207-.276.223-.266.236-.253.25-.241.262-.232.274-.217.287-.205.296-.193.307-.178.317-.166.325-.15.334-.136.341-.122.352-.108.355-.091.362-.075.37-.059.372-.044.377-.025.38-.01.385.01.382.029.376.044.368.063.365.081.354.098.349.111.339.128.33.144.32.158.313.173.303.186.294.2.28.21.272.225.26.236.247.247.236.258.224.267.21.278.198.289.185.296.169.306.156.312.14.321.126.328.112.333.094.34.077.346.062.353.043.355.028.359.008H38v-2.029H21.084l-.276-.006-.272-.024-.268-.036-.261-.05-.256-.064-.251-.077-.244-.087-.237-.103-.232-.112-.225-.124-.217-.132-.209-.144-.2-.155-.195-.161-.187-.171-.176-.18-.169-.186-.16-.193-.15-.202-.142-.205-.13-.212-.122-.217-.111-.222-.1-.225-.089-.23-.079-.233-.067-.236-.055-.24-.042-.238-.033-.242-.018-.242-.008-.242.006-.27.016-.268.028-.268.04-.266.048-.263.06-.261.07-.258.08-.255.092-.25.102-.247.111-.24.124-.233.13-.23.142-.222.152-.214.16-.206.173-.197.18-.191.189-.18.198-.17.21-.158.217-.148.227-.137.235-.124.243-.112.254-.098.262-.086.27-.07.277-.056.286-.04.297-.027.302-.006.302.006.294.022.284.038.278.054.27.066.26.084.251.094.244.11.235.122.225.132.217.146.209.157.199.167.188.178.181.186.173.195.16.205.152.215.142.22.134.228.123.235.112.24.104.249.093.25.083.258.071.261.063.266.051.268.042.272.03.274.019.274.01.279h1.903l-.01-.403-.025-.396-.044-.393-.059-.383-.075-.377-.093-.37-.106-.363-.124-.353-.136-.345-.152-.335-.166-.327-.179-.315-.194-.305-.205-.293-.22-.283-.23-.27-.244-.257-.254-.242-.265-.232-.278-.216-.286-.202-.299-.186-.306-.171-.318-.155-.325-.139-.334-.122-.346-.105-.35-.086-.36-.068-.364-.05-.374-.03-.381-.008-.38.01zM5 17v2.01h2.01V29H9l-.02-12H5zm15.84.007l-.212.018-.206.029-.203.042-.199.051-.195.06-.188.074-.187.082-.18.092-.177.102-.17.11-.165.12-.158.127-.152.135-.148.143-.14.151-.132.159-.127.164-.118.172-.112.178-.105.185-.095.19-.087.193-.08.2-.07.206-.064.21-.052.213-.043.216-.034.22-.023.223-.014.227-.004.23.006.231.014.228.027.225.036.22.045.216.055.212.062.207.073.205.082.198.089.192.1.187.105.183.113.173.12.17.128.162.134.154.141.15.149.14.152.131.16.125.164.116.17.106.177.099.18.091.185.077.19.071.194.06.196.05.201.04.205.027.207.018.21.007H38v-2.09H21.087l-.102-.004-.103-.007-.101-.013-.102-.018-.1-.022-.098-.03-.1-.03-.095-.039-.095-.04-.094-.046-.091-.05-.09-.052-.087-.058-.085-.063-.08-.064-.078-.07-.075-.071-.073-.078-.067-.078-.065-.083-.06-.084-.057-.089-.051-.091-.047-.094-.043-.096-.038-.1-.03-.1-.029-.105-.02-.105-.016-.11-.008-.108-.004-.112.002-.14.008-.136.012-.136.016-.13.02-.132.027-.127.03-.125.035-.123.04-.12.043-.116.048-.111.053-.11.055-.106.06-.1.066-.098.069-.094.073-.09.075-.084.08-.078.084-.075.09-.07.09-.064.096-.06.1-.054.1-.049.106-.042.11-.036.113-.029.116-.024.12-.018.121-.009.126-.004.126.004.124.01.117.017.118.024.111.03.11.035.105.042.104.05.097.053.095.06.093.065.088.069.083.075.081.078.077.085.073.09.067.093.065.098.061.1.057.107.052.109.047.111.045.116.038.12.034.123.031.125.027.127.02.131.018.131.012.136.006.136.002.14h1.902l-.003-.251-.017-.245-.028-.243-.036-.24-.047-.235-.057-.227-.067-.225-.075-.218-.085-.214-.093-.207-.1-.2-.11-.197-.117-.187-.124-.18-.13-.174-.137-.165-.146-.158-.15-.149-.156-.143-.163-.13-.168-.126-.173-.113-.176-.105-.182-.096-.187-.085-.189-.073-.194-.065-.197-.053-.199-.04-.203-.031-.205-.018-.207-.007-.212.007z"/></svg>
